X: 38927
T: Surely Wee Och Aye
R: reel
M: 4/4
K: Gminor
B2 (3BBB defb|gabg fdBd|ec (3ccc dB (3BBB|c2cB AcFc|
dB (3BBB defB|c2 (3ccc efg2|f2 (3fff bd (3ddd|1 edce dc (3ccc:|2 edce dB (3BBB||
|:g2gf egbg|f2 (3fff fedf|gfeg fedf|edcB AcFA|
B2 (3BBB bBaB|g2gb gf (3fff|f2 (3fff bd (3ddd|1 edce dB (3BBB:|2 edce dc (3ccc||

